static/img/kroki/bb750e4bc037fbb5c271c97ca1e41bb9.svg

<?xml version="1.0" encoding="us-ascii" standalone="no"?><svg xmlns="http://www.w3.org/2000/svg" xmlns:xlink="http://www.w3.org/1999/xlink" contentStyleType="text/css" height="374px" preserveAspectRatio="none" style="width:353px;height:374px;" version="1.1" viewBox="0 0 353 374" width="353px" zoomAndPan="magnify"><defs/><g><!--class azure_network_firewall--><g id="elem_azure_network_firewall"><rect codeLine="23" fill="#3D176E" height="39.7891" id="azure_network_firewall" rx="2.5" ry="2.5" style="stroke:#000D19;stroke-width:0.5;" width="239" x="33" y="328.58"/><ellipse cx="48" cy="348.4745" fill="#ADD1B2" rx="11" ry="11" style="stroke:#181818;stroke-width:1.0;"/><path d="M50.9688,354.1152 Q50.3906,354.412 49.75,354.5527 Q49.1094,354.7089 48.4063,354.7089 Q45.9063,354.7089 44.5781,353.0683 Q43.2656,351.412 43.2656,348.287 Q43.2656,345.162 44.5781,343.5058 Q45.9063,341.8495 48.4063,341.8495 Q49.1094,341.8495 49.75,342.0058 Q50.4063,342.162 50.9688,342.4589 L50.9688,345.1777 Q50.3438,344.5995 49.75,344.3339 Q49.1563,344.0527 48.5313,344.0527 Q47.1875,344.0527 46.5,345.1308 Q45.8125,346.1933 45.8125,348.287 Q45.8125,350.3808 46.5,351.4589 Q47.1875,352.5214 48.5313,352.5214 Q49.1563,352.5214 49.75,352.2558 Q50.3438,351.9745 50.9688,351.3964 L50.9688,354.1152 Z " fill="#000000"/><text fill="#D9B8FF" font-family="Helvetica" font-size="17" lengthAdjust="spacing" textLength="197" x="67" y="354.3598">azure_network_firewall</text></g><!--class firewall--><g id="elem_firewall"><rect codeLine="26" fill="#3D176E" height="39.7891" id="firewall" rx="2.5" ry="2.5" style="stroke:#000D19;stroke-width:0.5;" width="105" x="7" y="167.79"/><ellipse cx="22" cy="187.6845" fill="#ADD1B2" rx="11" ry="11" style="stroke:#181818;stroke-width:1.0;"/><path d="M24.9688,193.3252 Q24.3906,193.622 23.75,193.7627 Q23.1094,193.9189 22.4063,193.9189 Q19.9063,193.9189 18.5781,192.2783 Q17.2656,190.622 17.2656,187.497 Q17.2656,184.372 18.5781,182.7158 Q19.9063,181.0595 22.4063,181.0595 Q23.1094,181.0595 23.75,181.2158 Q24.4063,181.372 24.9688,181.6689 L24.9688,184.3877 Q24.3438,183.8095 23.75,183.5439 Q23.1563,183.2627 22.5313,183.2627 Q21.1875,183.2627 20.5,184.3408 Q19.8125,185.4033 19.8125,187.497 Q19.8125,189.5908 20.5,190.6689 Q21.1875,191.7314 22.5313,191.7314 Q23.1563,191.7314 23.75,191.4658 Q24.3438,191.1845 24.9688,190.6064 L24.9688,193.3252 Z " fill="#000000"/><text fill="#D9B8FF" font-family="Helvetica" font-size="17" lengthAdjust="spacing" textLength="63" x="41" y="193.5698">firewall</text></g><!--class microsoft_resource--><g id="elem_microsoft_resource"><rect codeLine="29" fill="#3D176E" height="39.7891" id="microsoft_resource" rx="2.5" ry="2.5" style="stroke:#000D19;stroke-width:0.5;" width="200" x="146.5" y="167.79"/><ellipse cx="161.5" cy="187.6845" fill="#ADD1B2" rx="11" ry="11" style="stroke:#181818;stroke-width:1.0;"/><path d="M164.4688,193.3252 Q163.8906,193.622 163.25,193.7627 Q162.6094,193.9189 161.9063,193.9189 Q159.4063,193.9189 158.0781,192.2783 Q156.7656,190.622 156.7656,187.497 Q156.7656,184.372 158.0781,182.7158 Q159.4063,181.0595 161.9063,181.0595 Q162.6094,181.0595 163.25,181.2158 Q163.9063,181.372 164.4688,181.6689 L164.4688,184.3877 Q163.8438,183.8095 163.25,183.5439 Q162.6563,183.2627 162.0313,183.2627 Q160.6875,183.2627 160,184.3408 Q159.3125,185.4033 159.3125,187.497 Q159.3125,189.5908 160,190.6689 Q160.6875,191.7314 162.0313,191.7314 Q162.6563,191.7314 163.25,191.4658 Q163.8438,191.1845 164.4688,190.6064 L164.4688,193.3252 Z " fill="#000000"/><text fill="#D9B8FF" font-family="Helvetica" font-size="17" lengthAdjust="spacing" textLength="158" x="180.5" y="193.5698">microsoft_resource</text></g><!--class resource--><g id="elem_resource"><rect codeLine="32" fill="#3D176E" height="39.7891" id="resource" rx="2.5" ry="2.5" style="stroke:#000D19;stroke-width:0.5;" width="113" x="96" y="7"/><ellipse cx="111" cy="26.8945" fill="#ADD1B2" rx="11" ry="11" style="stroke:#181818;stroke-width:1.0;"/><path d="M113.9688,32.5352 Q113.3906,32.832 112.75,32.9727 Q112.1094,33.1289 111.4063,33.1289 Q108.9063,33.1289 107.5781,31.4883 Q106.2656,29.832 106.2656,26.707 Q106.2656,23.582 107.5781,21.9258 Q108.9063,20.2695 111.4063,20.2695 Q112.1094,20.2695 112.75,20.4258 Q113.4063,20.582 113.9688,20.8789 L113.9688,23.5977 Q113.3438,23.0195 112.75,22.7539 Q112.1563,22.4727 111.5313,22.4727 Q110.1875,22.4727 109.5,23.5508 Q108.8125,24.6133 108.8125,26.707 Q108.8125,28.8008 109.5,29.8789 Q110.1875,30.9414 111.5313,30.9414 Q112.1563,30.9414 112.75,30.6758 Q113.3438,30.3945 113.9688,29.8164 L113.9688,32.5352 Z " fill="#000000"/><text fill="#D9B8FF" font-family="Helvetica" font-size="17" lengthAdjust="spacing" textLength="71" x="130" y="32.7798">resource</text></g><!--reverse link firewall to azure_network_firewall--><g id="link_firewall_azure_network_firewall"><path codeLine="35" d="M79.815,223.3732 C97.685,253.8932 123.34,297.69 141.24,328.25 " fill="none" id="firewall-backto-azure_network_firewall" style="stroke:#FFAF37;stroke-width:2.0;"/><polygon fill="none" points="70.72,207.84,74.6372,226.4049,84.9927,220.3416,70.72,207.84" style="stroke:#FFAF37;stroke-width:2.0;"/></g><!--reverse link microsoft_resource to azure_network_firewall--><g id="link_microsoft_resource_azure_network_firewall"><path codeLine="36" d="M225.9895,223.3288 C207.9195,253.8488 181.97,297.69 163.88,328.25 " fill="none" id="microsoft_resource-backto-azure_network_firewall" style="stroke:#FFAF37;stroke-width:2.0;"/><polygon fill="none" points="235.16,207.84,220.8266,220.272,231.1525,226.3856,235.16,207.84" style="stroke:#FFAF37;stroke-width:2.0;"/></g><!--reverse link resource to firewall--><g id="link_resource_firewall"><path codeLine="37" d="M132.185,62.5832 C114.315,93.1032 88.66,136.9 70.76,167.46 " fill="none" id="resource-backto-firewall" style="stroke:#FFAF37;stroke-width:2.0;"/><polygon fill="none" points="141.28,47.05,127.0073,59.5516,137.3628,65.6149,141.28,47.05" style="stroke:#FFAF37;stroke-width:2.0;"/></g><!--reverse link resource to microsoft_resource--><g id="link_resource_microsoft_resource"><path codeLine="38" d="M173.0105,62.5388 C191.0805,93.0588 217.03,136.9 235.12,167.46 " fill="none" id="resource-backto-microsoft_resource" style="stroke:#FFAF37;stroke-width:2.0;"/><polygon fill="none" points="163.84,47.05,167.8475,65.5956,178.1734,59.482,163.84,47.05" style="stroke:#FFAF37;stroke-width:2.0;"/></g><!--SRC=[XP3DRi8m48JlUGfBd96Wg0MaNW2fQY-eAhr7Ixm6AuatMcyQGTjtRoaKcVp0TURppAotLgF2l92ToZ5V8_l8fzOLm92h6JDL2yg8LSyOCADntNmY9pU19UIedZ7xGB49r8dthKrIXzwhky2QGv9kc4gdZ_72uFolXKu2Qf61zpCHjkjIC1YZf-k9CNMo7jeRwU7u0HiOiKO-8OF1G0-dTUHcrTMxpyJAxb4DmqzRac1ZPgFYZxgwya048nk7_lkT6rz1Q-iswZxGtewRs25VwAijQAeEj87CXpLUa95aL-2YSHLE9zgCM-6NBZXA3b-dO5yonWwb8avZOnaho3Br6KNV9w9Dost2vCb8pEYfv0H3zr8xlt_ywlVx7OLHI-9LlaPrwStOw0S0]--></g></svg>

<svg xmlns="http://www.w3.org/2000/svg" width="353" height="374" viewBox="0 0 353 374"><rect width="239" height="39.789" x="33" y="328.58" fill="#3D176E" rx="2.5" ry="2.5" style="stroke:#000d19;stroke-width:.5"/><circle cx="48" cy="348.474" r="11" fill="#ADD1B2" style="stroke:#181818;stroke-width:1"/><path d="M50.969 354.115q-.578.297-1.219.438-.64.156-1.344.156-2.5 0-3.828-1.64-1.312-1.657-1.312-4.782t1.312-4.781q1.328-1.656 3.828-1.656.703 0 1.344.156.656.156 1.219.453v2.719q-.625-.579-1.219-.844-.594-.281-1.219-.281-1.343 0-2.031 1.078-.687 1.062-.687 3.156t.687 3.172q.688 1.062 2.031 1.062.625 0 1.219-.265.594-.281 1.219-.86z"/><text x="67" y="354.36" fill="#D9B8FF" font-family="Helvetica" font-size="17" textLength="197">azure_network_firewall</text><rect width="105" height="39.789" x="7" y="167.79" fill="#3D176E" rx="2.5" ry="2.5" style="stroke:#000d19;stroke-width:.5"/><circle cx="22" cy="187.685" r="11" fill="#ADD1B2" style="stroke:#181818;stroke-width:1"/><path d="M24.969 193.325q-.578.297-1.219.438-.64.156-1.344.156-2.5 0-3.828-1.64-1.312-1.657-1.312-4.782t1.312-4.781q1.328-1.656 3.828-1.656.703 0 1.344.156.656.156 1.219.453v2.719q-.625-.578-1.219-.844-.594-.281-1.219-.281-1.343 0-2.031 1.078-.687 1.062-.687 3.156t.687 3.172q.688 1.062 2.031 1.062.625 0 1.219-.265.594-.281 1.219-.86z"/><text x="41" y="193.57" fill="#D9B8FF" font-family="Helvetica" font-size="17" textLength="63">firewall</text><rect width="200" height="39.789" x="146.5" y="167.79" fill="#3D176E" rx="2.5" ry="2.5" style="stroke:#000d19;stroke-width:.5"/><circle cx="161.5" cy="187.685" r="11" fill="#ADD1B2" style="stroke:#181818;stroke-width:1"/><path d="M164.469 193.325q-.578.297-1.219.438-.64.156-1.344.156-2.5 0-3.828-1.64-1.312-1.657-1.312-4.782t1.312-4.781q1.328-1.656 3.828-1.656.703 0 1.344.156.656.156 1.219.453v2.719q-.625-.578-1.219-.844-.594-.281-1.219-.281-1.344 0-2.031 1.078-.687 1.062-.687 3.156t.687 3.172q.688 1.062 2.031 1.062.625 0 1.219-.265.594-.281 1.219-.86z"/><text x="180.5" y="193.57" fill="#D9B8FF" font-family="Helvetica" font-size="17" textLength="158">microsoft_resource</text><rect width="113" height="39.789" x="96" y="7" fill="#3D176E" rx="2.5" ry="2.5" style="stroke:#000d19;stroke-width:.5"/><circle cx="111" cy="26.895" r="11" fill="#ADD1B2" style="stroke:#181818;stroke-width:1"/><path d="M113.969 32.535q-.578.297-1.219.438-.64.156-1.344.156-2.5 0-3.828-1.64-1.312-1.657-1.312-4.782t1.312-4.781q1.328-1.656 3.828-1.656.703 0 1.344.156.656.156 1.219.453v2.719q-.625-.578-1.219-.844-.594-.281-1.219-.281-1.344 0-2.031 1.078-.687 1.062-.687 3.156t.687 3.172q.688 1.062 2.031 1.062.625 0 1.219-.265.594-.281 1.219-.86z"/><text x="130" y="32.78" fill="#D9B8FF" font-family="Helvetica" font-size="17" textLength="71">resource</text><g fill="none"><path d="M79.815 223.373c17.87 30.52 43.525 74.317 61.425 104.877" style="stroke:#ffaf37;stroke-width:2"/><path d="m70.72 207.84 3.917 18.565 10.356-6.063z" style="stroke:#ffaf37;stroke-width:2"/></g><path fill="none" d="M225.99 223.329c-18.07 30.52-44.02 74.361-62.11 104.921m71.28-120.41-14.333 12.432 10.326 6.114z" style="stroke:#ffaf37;stroke-width:2"/><g fill="none"><path d="M132.185 62.583C114.315 93.103 88.66 136.9 70.76 167.46" style="stroke:#ffaf37;stroke-width:2"/><path d="m141.28 47.05-14.273 12.502 10.356 6.063z" style="stroke:#ffaf37;stroke-width:2"/></g><g fill="none"><path d="M173.01 62.539c18.07 30.52 44.02 74.361 62.11 104.921" style="stroke:#ffaf37;stroke-width:2"/><path d="m163.84 47.05 4.007 18.546 10.326-6.114z" style="stroke:#ffaf37;stroke-width:2"/></g></svg>
